X:23024
T:Wiltshire Six Hand Reel
R:Reel
C:Trad.
O:England, Wiltshire
Z:Paul Hardy's Session Tunebook 2015 (see www.paulhardy.net). Creative Commons cc by-nc-sa licenced.
M:2/2
L:1/8
Q:1/2=100
K:D
|:"D"f2A2 d2e2|f2A2 d2e2|f4 g3f|"A7"f2e2 e4|"A"e2A2 c2d2|e2A2c2d2|"A7"e4 f3e|"D"e2d2 d4:|
|:"D"addd d3d|"G"c2B2 B4|"A7"gccc c3c|"D"B2A2 A4|addd d3d|"G"c2B2 B4|"A7"B2e2 B2c2|"D"d4 d4:|

